source/favicons/icon.svg

<svg width="16" height="16" viewBox="0 0 16 16" fill="none" xmlns="http://www.w3.org/2000/svg">
<rect width="16" height="16" rx="4" fill="#EEEEEE"/>
<path d="M11.8484 8.6002C11.813 7.65451 11.6712 6.70882 11.6712 5.76313C11.6712 4.99257 11.813 4.18698 11.5294 3.45145C11.5294 3.38139 11.5649 3.27632 11.5649 3.20627C11.6358 2.82099 10.3951 3.03114 10.2179 3.38139C10.1115 3.48647 10.0407 3.59155 10.0761 3.73165C10.0761 3.76668 10.1116 3.8017 10.1116 3.83673C9.86342 4.95754 9.5444 6.07836 9.18994 7.16415C9.04815 7.58446 8.87092 8.00476 8.72913 8.42507C8.51645 8.03979 8.30377 7.65451 8.12654 7.2342C7.63028 6.00831 7.20493 4.78242 6.60233 3.62657C6.67323 3.10119 5.46804 3.13622 5.21991 3.62657C4.93634 4.22201 4.97179 4.81744 5.07813 5.48293C5.18447 6.21846 5.21991 6.91897 5.21991 7.65451C5.21991 9.05553 5.3617 10.4566 5.3617 11.8576C5.21991 11.9977 5.18447 12.1728 5.32625 12.3479C5.39715 12.418 5.46804 12.488 5.53893 12.5581C5.85795 12.8033 6.77957 12.5931 6.77957 12.1027C6.77957 10.6317 6.67323 9.19563 6.63778 7.72456C6.63778 7.58446 6.63778 7.44436 6.63778 7.30425C6.67323 7.33928 6.67323 7.40933 6.70867 7.44436C6.92135 8.00476 7.16948 8.56517 7.4885 9.09056C7.80752 9.61594 7.9493 10.1763 8.12654 10.7368C8.05564 10.8068 8.0202 10.9119 8.05564 10.9819C8.05564 11.052 8.09109 11.087 8.16199 11.122C8.37467 11.3322 8.83547 11.2271 9.04815 11.122C9.15449 11.087 9.26083 11.017 9.33172 10.9819C9.43806 10.9119 9.65074 10.7368 9.57985 10.5616C9.57985 10.5266 9.5444 10.4916 9.5444 10.4566C9.72164 10.0012 9.79253 9.54589 9.89887 9.05553C10.0052 8.56517 10.1824 8.07482 10.3597 7.58446C10.3951 7.79461 10.3951 8.03979 10.4306 8.24994C10.5015 9.16061 10.4306 10.0362 10.4306 10.9469C10.4306 11.2621 10.466 11.5073 10.5015 11.8225C10.5369 11.9276 10.6432 12.453 10.6078 12.488C10.3951 12.6982 10.466 12.9434 10.7496 12.9784C11.0686 13.0484 11.494 12.9434 11.7421 12.7332C12.1675 12.3479 11.9548 11.7175 11.8839 11.2271C11.6712 10.3865 11.8484 9.44081 11.8484 8.6002Z" fill="black"/>
</svg>

<svg xmlns="http://www.w3.org/2000/svg" viewBox="0 0 16 16"><rect width="16" height="16" fill="#eee" rx="4"/><path d="M11.85 8.6c-.04-.95-.18-1.9-.18-2.84 0-.77.14-1.57-.14-2.3l.03-.25c.08-.39-1.16-.18-1.34.17-.1.1-.18.21-.14.35 0 .04.03.07.03.1a35.57 35.57 0 0 1-.92 3.33c-.14.42-.32.84-.46 1.27-.21-.39-.43-.78-.6-1.2-.5-1.22-.93-2.45-1.53-3.6.07-.53-1.13-.5-1.38 0a3 3 0 0 0-.14 1.85c.1.74.14 1.44.14 2.17 0 1.4.14 2.8.14 4.2-.14.15-.18.32-.03.5l.2.2c.33.25 1.25.04 1.25-.45 0-1.47-.1-2.9-.14-4.38V7.3c.03.04.03.1.07.14.21.56.46 1.13.78 1.65.32.53.46 1.09.64 1.65-.07.07-.11.17-.07.24 0 .07.03.1.1.14.21.21.68.1.89 0 .1-.03.21-.1.28-.14.1-.07.32-.24.25-.42 0-.03-.04-.07-.04-.1.18-.46.25-.91.36-1.4.1-.5.28-.99.46-1.48.04.21.04.46.07.67.07.91 0 1.79 0 2.7 0 .31.04.56.07.87.04.1.14.63.1.67-.2.2-.13.45.15.49.32.07.74-.04 1-.25.42-.38.2-1.01.13-1.5-.2-.84-.03-1.79-.03-2.63Z"/></svg>
